16x16/actions/view-financial-account-checking-closed.svg

<svg viewBox="0 0 16 16" xmlns="http://www.w3.org/2000/svg"><path d="m4.121 2 1 1h8.879v8.879l1 1v-10.879zm2 2 1 1h1.879v-1zm3.879 0v1h3v-1zm-7 1.121v2.879h-2v6h10.879l-1-1h-8.879v-4h4.879l-1-1h-1.879v-1.879zm7.121 2.879 1 1h.879v.879l1 1v-2.879zm-7.121 3v1h6v-.879l-.121-.121z" fill="#555e70"/><path d="m2.707 2-.707.707 11.293 11.293.707-.732z" fill="#da4453"/></svg>

<svg viewBox="0 0 16 16" xmlns="http://www.w3.org/2000/svg">
    <path d="m4.121 2 1 1H14v8.879l1 1V2zm2 2 1 1H9V4zM10 4v1h3V4zM3 5.121V8H1v6h10.879l-1-1H2V9h4.879l-1-1H4V6.121zM10.121 8l1 1H12v.879l1 1V8zM3 11v1h6v-.879L8.879 11z" fill="#555e70"/>
    <path d="M2.707 2 2 2.707 13.293 14l.707-.732z" fill="#da4453"/>
</svg>
